ix/brifecase-tick_linear.svg

<svg viewBox="0 0 24 24" fill="none" xmlns="http://www.w3.org/2000/svg" height="1em" width="1em">
  <path d="M12 18.2C14.2091 18.2 16 16.4091 16 14.2C16 11.9908 14.2091 10.2 12 10.2C9.79086 10.2 8 11.9908 8 14.2C8 16.4091 9.79086 18.2 12 18.2Z" stroke="#292D32" stroke-width="1.5" stroke-miterlimit="10" stroke-linecap="round" stroke-linejoin="round"/>
  <path d="M10.4399 14.2999L11.0899 14.9499C11.2799 15.1399 11.5899 15.1399 11.7799 14.9599L13.5599 13.3199" stroke="#292D32" stroke-width="1.5" stroke-linecap="round" stroke-linejoin="round"/>
  <path d="M7.99995 22H15.9999C20.0199 22 20.7399 20.39 20.9499 18.43L21.6999 10.43C21.9699 7.99 21.2699 6 16.9999 6H6.99995C2.72995 6 2.02995 7.99 2.29995 10.43L3.04995 18.43C3.25995 20.39 3.97995 22 7.99995 22Z" stroke="#292D32" stroke-width="1.5" stroke-miterlimit="10" stroke-linecap="round" stroke-linejoin="round"/>
  <path d="M8 6V5.2C8 3.43 8 2 11.2 2H12.8C16 2 16 3.43 16 5.2V6" stroke="#292D32" stroke-width="1.5" stroke-miterlimit="10" stroke-linecap="round" stroke-linejoin="round"/>
  <path d="M21.65 11C19.92 12.26 18 13.14 16.01 13.64" stroke="#292D32" stroke-width="1.5" stroke-miterlimit="10" stroke-linecap="round" stroke-linejoin="round"/>
  <path d="M2.62 11.27C4.29 12.41 6.11 13.22 8 13.68" stroke="#292D32" stroke-width="1.5" stroke-miterlimit="10" stroke-linecap="round" stroke-linejoin="round"/>
</svg>

<svg viewBox="0 0 24 24" fill="none" xmlns="http://www.w3.org/2000/svg" height="1em" width="1em">
  <path d="M12 18.2a4 4 0 1 0 0-8 4 4 0 0 0 0 8Z" stroke="#292D32" stroke-width="1.5" stroke-miterlimit="10" stroke-linecap="round" stroke-linejoin="round"/>
  <path d="m10.44 14.3.65.65c.19.19.5.19.69.01l1.78-1.64" stroke="#292D32" stroke-width="1.5" stroke-linecap="round" stroke-linejoin="round"/>
  <path d="M8 22h8c4.02 0 4.74-1.61 4.95-3.57l.75-8C21.97 7.99 21.27 6 17 6H7c-4.27 0-4.97 1.99-4.7 4.43l.75 8C3.26 20.39 3.98 22 8 22ZM8 6v-.8C8 3.43 8 2 11.2 2h1.6C16 2 16 3.43 16 5.2V6" stroke="#292D32" stroke-width="1.5" stroke-miterlimit="10" stroke-linecap="round" stroke-linejoin="round"/>
  <path d="M21.65 11a16.335 16.335 0 0 1-5.64 2.64M2.62 11.27c1.67 1.14 3.49 1.95 5.38 2.41" stroke="#292D32" stroke-width="1.5" stroke-miterlimit="10" stroke-linecap="round" stroke-linejoin="round"/>
</svg>
